packages/kaspersky-hexa-ui-icons/src/iconsSVGs/48/ShoppingCart.svg

<svg width="48" height="48" viewBox="0 0 48 48" fill="none" xmlns="http://www.w3.org/2000/svg">
<path fill-rule="evenodd" clip-rule="evenodd" d="M48 15.9998H36.81L30.1 4.36984C29.5641 3.44095 28.5734 2.86852 27.501 2.86818C26.4286 2.86783 25.4375 3.43963 24.901 4.36818C24.3645 5.29672 24.3641 6.44095 24.9 7.36984L29.9 15.9998H18.12L23.12 7.36984C23.9484 5.9339 23.4559 4.09827 22.02 3.26984C20.5841 2.44142 18.7484 2.9339 17.92 4.36984L11.19 15.9998H0V23.9998H2.13L5.13 45.9998H42.87L45.87 23.9998H48V15.9998ZM46 18.9998H37.31C37.4199 18.6774 37.4806 18.3403 37.49 17.9998H46V18.9998ZM2 20.9998H46V21.9998H2V20.9998ZM27 4.99984C27.2305 4.8663 27.5048 4.83026 27.762 4.89972C28.0192 4.96918 28.238 5.1384 28.37 5.36984L35.37 17.4898C35.6461 17.9703 35.4805 18.5837 35 18.8598C34.5195 19.136 33.9061 18.9703 33.63 18.4898L26.63 6.36984C26.4965 6.13932 26.4604 5.86504 26.5299 5.60784C26.5993 5.35064 26.7686 5.1318 27 4.99984ZM31 17.9998L31.58 18.9998H16.38L16.96 17.9998H31ZM12.59 17.4898L19.59 5.36984C19.8661 4.88936 20.4795 4.7237 20.96 4.99984C21.4405 5.27599 21.6061 5.88936 21.33 6.36984L14.33 18.4898C14.0539 18.9703 13.4405 19.136 12.96 18.8598C12.4795 18.5837 12.3139 17.9703 12.59 17.4898ZM10.47 17.9998C10.4794 18.3403 10.5401 18.6774 10.65 18.9998H2V17.9998H10.47ZM41.09 43.9998H6.87L4.15 23.9998H43.85L41.09 43.9998ZM25 31.9998H23V27.9998H25V31.9998ZM31 31.9998H29V27.9998H31V31.9998ZM37 31.9998H35V27.9998H37V31.9998ZM37 39.9998H35V35.9998H37V39.9998ZM31 39.9998H29V35.9998H31V39.9998ZM25 39.9998H23V35.9998H25V39.9998ZM13 31.9998H11V27.9998H13V31.9998ZM19 31.9998H17V27.9998H19V31.9998ZM19 39.9998H17V35.9998H19V39.9998ZM13 39.9998H11V35.9998H13V39.9998Z"  fill="currentColor"/>
</svg>

<svg xmlns="http://www.w3.org/2000/svg" width="48" height="48" fill="none" viewBox="0 0 48 48"><path fill="currentColor" fill-rule="evenodd" d="M48 15.9998H36.81l-6.71-11.63a3.0016 3.0016 0 1 0-5.2 3l5 8.63H18.12l5-8.63c.8284-1.4359.3359-3.2715-1.1-4.1s-3.2716-.3359-4.1 1.1l-6.73 11.63H0v8h2.13l3 22h37.74l3-22H48zm-2 3h-8.69a3.39 3.39 0 0 0 .18-1H46zm-44 2h44v1H2zm25-16a1 1 0 0 1 1.37.37l7 12.12c.2761.4805.1105 1.0939-.37 1.37s-1.0939.1105-1.37-.37l-7-12.12a1 1 0 0 1 .37-1.37m4 13 .58 1h-15.2l.58-1zm-18.41-.51 7-12.12c.2761-.4804.8895-.6461 1.37-.37s.6461.8896.37 1.37l-7 12.12c-.2761.4805-.8895.6462-1.37.37s-.6461-.8895-.37-1.37m-2.12.51c.0094.3405.0701.6776.18 1H2v-1zm30.62 26H6.87l-2.72-20h39.7zm-16.09-12h-2v-4h2zm6 0h-2v-4h2zm6 0h-2v-4h2zm0 8h-2v-4h2zm-6 0h-2v-4h2zm-6 0h-2v-4h2zm-12-8h-2v-4h2zm6 0h-2v-4h2zm0 8h-2v-4h2zm-6 0h-2v-4h2z" clip-rule="evenodd"/></svg>
